includes/images/blockchains/bsc.svg

<?xml version="1.0" encoding="UTF-8"?>
<svg id="Layer_1" data-name="Layer 1" xmlns="http://www.w3.org/2000/svg" version="1.1" viewBox="0 0 100 100">
  <defs>
    <style>
      .cls-1 {
        fill: #f0b90b;
      }

      .cls-1, .cls-2 {
        stroke-width: 0px;
      }

      .cls-2 {
        fill: #000;
      }
    </style>
  </defs>
  <rect class="cls-2" x="1.5" y="2" width="97" height="96.1" rx="10.5" ry="10.5"/>
  <path class="cls-1" d="M31.1,25.2l18.9-10.9,18.9,10.9-6.9,4-12-6.8-12,6.8-6.9-4ZM68.9,39l-6.9-4-12,6.9-12-6.9-6.9,4v8.1l12,6.9v13.7l6.9,4.1,6.9-4.1v-13.7l12-6.9v-8.1h0ZM68.9,60.9v-8.1l-6.9,4v8.1l6.9-4ZM73.8,63.7l-12,6.9v8.1l18.9-10.9v-21.9l-6.9,4.1v13.7h0ZM66.9,32.1l6.9,4.1v8.1l6.9-4.1v-8.1l-6.9-4.1-6.9,4.1h0ZM43.1,73.5v8.1l6.9,4.1,6.9-4.1v-8.1l-6.9,4-6.9-4ZM31.1,60.9l6.9,4.1v-8.1l-6.9-4v8ZM43.1,32.1l6.9,4.1,6.9-4.1-6.9-4s-6.9,4-6.9,4ZM26.2,36.2l6.9-4.1-6.9-4.1-6.9,4.1v8.1l6.9,4.1s0-8.1,0-8.1ZM26.2,49.9l-6.9-4v21.8l18.9,10.9v-8.1l-12-6.9c0,.1,0-13.7,0-13.7h0Z"/>
</svg>

<?xml version="1.0" encoding="utf-8"?>
<!-- Generator: Adobe Illustrator 27.2.0, SVG Export Plug-In . SVG Version: 6.00 Build 0)  -->
<svg version="1.1" id="Layer_1" xmlns="http://www.w3.org/2000/svg" xmlns:xlink="http://www.w3.org/1999/xlink" x="0px" y="0px"
	 viewBox="0 0 100 100" style="enable-background:new 0 0 100 100;" xml:space="preserve">
<style type="text/css">
	.st0{fill:#F0B90B;}
</style>
<g>
	<path d="M98.4,90.6c0,3.8-3.2,7-7,7h-83c-3.8,0-7-3.2-7-7V8.5c0-3.8,3.2-7,7-7h83c3.8,0,7,3.2,7,7V90.6z"/>
</g>
<path class="st0" d="M31.1,25.2L50,14.3l18.9,10.9l-6.9,4l-12-6.8l-12,6.8L31.1,25.2z M68.9,39L62,35l-12,6.9L38,35l-6.9,4v8.1
	l12,6.9v13.7l6.9,4.1l6.9-4.1V54l12-6.9V39L68.9,39z M68.9,60.9v-8.1l-6.9,4v8.1L68.9,60.9z M73.8,63.7l-12,6.9v8.1l18.9-10.9V45.9
	L73.8,50V63.7L73.8,63.7z M66.9,32.1l6.9,4.1v8.1l6.9-4.1v-8.1L73.8,28L66.9,32.1L66.9,32.1z M43.1,73.5v8.1l6.9,4.1l6.9-4.1v-8.1
	l-6.9,4L43.1,73.5z M31.1,60.9L38,65v-8.1l-6.9-4V60.9z M43.1,32.1l6.9,4.1l6.9-4.1l-6.9-4C50,28.1,43.1,32.1,43.1,32.1z M26.2,36.2
	l6.9-4.1L26.2,28l-6.9,4.1v8.1l6.9,4.1C26.2,44.3,26.2,36.2,26.2,36.2z M26.2,49.9l-6.9-4v21.8l18.9,10.9v-8.1l-12-6.9
	C26.2,63.7,26.2,49.9,26.2,49.9L26.2,49.9z"/>
</svg>
